X: 193
T:Put Me in the Big Chest
T:Cuir a Chiste Mhoir Mi
G:reel
S:Dunlay & Reich, Traditional Celtic Fiddle Music of Cape Breton
M:C|
L:1/8
Q:1/2=108
K:AMix
% A lydian/major/mixolydian pentatonic, DG-gap
F|EFAB c2cf|ecBA F/F/F AF|EFAB c/c/c cf|ecBc A/A/A AF|
  EFAB c2cf|ecBA F/F/F AF|EFAB cB    cf|ecBc A/A/A A||
c|efec eAAc|efec BABc    |efec efaf    |ecBc A/A/A A:|

Here is the same mode in early 20th century America:

